assets/icons/qvision/border_color.svg

<svg width="24" height="24" viewBox="0 0 24 24" fill="none" xmlns="http://www.w3.org/2000/svg">
<g clip-path="url(#clip0_147_2535)">
<path d="M22 24.0001H2V20.0001H22V24.0001ZM13.06 5.19006L16.81 8.94006L7.75 18.0001H4V14.2501L13.06 5.19006ZM17.88 7.87006L14.13 4.12006L15.96 2.29006C16.35 1.90006 16.98 1.90006 17.37 2.29006L19.71 4.63006C20.1 5.02006 20.1 5.65006 19.71 6.04006L17.88 7.87006Z" fill="#323232"/>
</g>
<defs>
<clipPath id="clip0_147_2535">
<rect width="24" height="24" fill="white"/>
</clipPath>
</defs>
</svg>

<svg xmlns="http://www.w3.org/2000/svg" enable-background="new 0 0 24 24" height="24" viewBox="0 0 24 24" width="24"><rect fill="none" height="24" width="24"/><path d="M22,24H2v-4h20V24z M13.06,5.19l3.75,3.75L7.75,18H4v-3.75L13.06,5.19z M17.88,7.87l-3.75-3.75 l1.83-1.83c0.39-0.39,1.02-0.39,1.41,0l2.34,2.34c0.39,0.39,0.39,1.02,0,1.41L17.88,7.87z" enable-background="new"/></svg>
